X: 19000
T: Inside-Oot Fish Eater, The
R: reel
M: 4/4
K: Dmajor
(3DFG|A3F DFAF|BAGB AGFE|FDDC DEFD|EA,A,E A,A,EA,|
A3F DFAF|BAGB AGFE|FDDC DEFD|EDCE D2:|
|:(3ABc|d3e fedf|g2fg edce|d3e fedf|eAAe AAeA|
d3e fedf|g2fg edce|defd edce|dBAF D2:|

